X: 12065
T: Essex Bazurka, The
R: mazurka
M: 3/4
K: Gmajor
|:(3DDD E>D F>D|G>A B>c ^c>d|e>d c2 A2|e>d B>d G>d|
D2 ^C>D (3FED|G>A B>c (3c^cd|e>d c>d F>d|G2 G4:|
|:g2 a>g f>e|(3d^cd B>e d>B|d>^c =c>A F>D|(3GGA (3BBc (3c^cd|
(3gfg a>g (3gfe|d2 B>e d>B|d>^c =c>d F>d|G2 G4:|

